assets/ai/ai-biorxiv-square.svg

<svg xmlns="http://www.w3.org/2000/svg" width="100%" height="100%" viewBox="-75.52 -43.52 599.04 599.04"><path d="M 48 32 C 21.5 32 0 53.5 0 80 L 0 432 C 0 458.5 21.5 480 48 480 L 400 480 C 426.5 480 448 458.5 448 432 L 448 80 C 448 53.5 426.5 32 400 32 L 48 32 z M 25.220703 96 L 109.04492 96 C 136.30742 96 157.65952 101.52477 173.09766 112.5625 C 188.52893 123.60666 196.25 138.92856 196.25 158.5332 C 196.25 173.85941 191.06435 186.70325 180.70312 197.06445 C 174.84098 202.92662 169.093 207.2053 163.46289 209.9082 C 157.82775 212.61297 148.92856 215.43204 136.75977 218.35742 L 159.40625 248.43945 C 164.13919 254.7511 170.55949 262.52527 178.67188 271.76367 C 187.68141 281.90426 197.37262 292.2693 207.74023 302.85938 C 216.97681 312.55046 224.24541 319.59221 229.54297 323.98438 C 234.8355 328.37973 242.89382 333.6188 253.71094 339.70117 L 198.95508 339.70117 C 189.93868 339.70117 180.24736 334.51994 169.88477 324.15234 C 157.71598 311.76154 145.32291 296.55396 132.70508 278.52344 C 124.14 267.03164 116.59226 256.44108 110.05859 246.75 C 104.87295 239.09215 97.43608 227.48181 87.75 211.93359 C 130.11306 206.07646 151.29297 189.62643 151.29297 162.58594 C 151.29297 137.35164 133.37973 124.72852 97.550781 124.72852 L 84.033203 124.72852 L 84.033203 309.91211 C 84.033203 316.46084 85.216231 321.76472 87.582031 325.82617 C 89.947791 329.89218 94.512741 334.51945 101.27344 339.70508 L 23.529297 339.70508 L 23.529297 339.70312 C 29.835927 334.97017 34.230161 330.46704 36.712891 326.18359 C 39.190581 321.90517 40.431641 316.71894 40.431641 310.63477 L 40.431641 127.0957 C 40.431641 121.91511 39.367944 116.84671 37.246094 111.88672 C 35.829524 109.63789 34.412747 107.49306 32.998047 105.46484 C 31.583307 103.43665 28.991603 100.28345 25.220703 96 z M 268.42188 174.6875 C 286.22757 174.80783 302.13421 182.43934 311.83594 203.27734 C 320.57642 222.04967 328.31614 241.28683 336.52539 260.30859 C 337.73314 263.0969 339.04229 265.83854 340.93164 269.98633 C 347.0877 261.91099 353.24709 255.01211 358.06836 247.2793 C 370.95525 226.61076 391.13247 193.74798 395.81836 184.70508 C 398.20881 179.86525 401.69473 176.43265 403.89648 176.2207 C 406.10011 176.0086 408.91407 175.933 411.29492 177.41992 C 413.67533 178.90866 415.50523 182.50065 413.83789 189.53906 C 412.17055 196.5775 411.21346 199.13979 408.9043 204.5625 C 395.38748 234.14192 375.55674 259.61704 354.71094 284.25977 C 350.77834 288.90911 350.60497 292.31367 352.80859 297.57422 C 362.21552 320.04027 371.03429 342.75126 380.375 365.24609 C 383.4808 372.72347 387.31842 379.92117 391.15234 387.06836 C 395.0283 394.29547 397.79683 398.11599 409.56641 397.95703 C 414.41627 397.94123 423.63581 396.64631 424.41602 403.66602 C 425.26982 411.33897 415.95334 412.48279 410.40039 413.61523 C 404.13217 414.89334 400.9761 415.3814 394.56445 415.39648 C 379.78319 415.42798 362.31583 409.77147 355.08008 396.64062 C 347.67255 383.19918 343.67526 373.39699 336.87891 355.03711 C 332.41826 342.98388 327.40807 331.12086 322.16211 317.71094 C 319.20845 320.8816 316.42755 323.09073 314.625 325.92383 C 292.25261 356.2551 279.26261 380.79239 269.24219 398.01758 C 261.34176 411.59787 260.68067 417.5964 251.29883 415.63672 C 242.74381 412.14034 245.21338 400.66043 245.88672 397.75195 C 249.85586 380.61177 262.41666 363.774 272.20508 348.97266 C 283.14597 332.4286 296.59561 317.55935 308.58398 301.68359 C 310.35817 299.33288 311.57741 294.85714 310.56836 292.37305 C 299.81976 265.92593 288.64398 239.64785 277.42578 213.39258 C 271.32471 200.37553 267.17407 192.07633 243.17773 192.97852 C 239.20857 192.61763 236.80233 191.5729 236.86719 186.99023 C 236.86719 181.43231 240.61918 179.45797 243.36914 178.64258 C 251.84213 176.1283 260.32838 174.6328 268.42188 174.6875 z"/></svg>

<svg xmlns="http://www.w3.org/2000/svg" width="100%" height="100%" viewBox="-75.52 -43.52 599.04 599.04"><path d="M48 32C21.5 32 0 53.5 0 80v352c0 26.5 21.5 48 48 48h352c26.5 0 48-21.5 48-48V80c0-26.5-21.5-48-48-48H48zM25.22 96h83.825c27.262 0 48.615 5.525 64.053 16.563 15.43 11.044 23.152 26.366 23.152 45.97 0 15.326-5.186 28.17-15.547 38.531-5.862 5.863-11.61 10.141-17.24 12.844-5.635 2.705-14.534 5.524-26.703 8.45l22.646 30.081c4.733 6.312 11.153 14.086 19.266 23.325 9.01 10.14 18.7 20.505 29.068 31.095 9.237 9.691 16.505 16.733 21.803 21.125 5.292 4.396 13.35 9.635 24.168 15.717h-54.756c-9.016 0-18.708-5.181-29.07-15.549-12.169-12.39-24.562-27.598-37.18-45.629-8.565-11.491-16.113-22.082-22.646-31.773-5.186-7.658-12.623-19.268-22.309-34.816 42.363-5.858 63.543-22.308 63.543-49.348 0-25.234-17.913-37.857-53.742-37.857H84.033v185.183c0 6.549 1.183 11.853 3.549 15.914 2.366 4.066 6.93 8.693 13.691 13.88H23.53v-.003c6.307-4.733 10.701-9.236 13.184-13.52 2.478-4.278 3.719-9.464 3.719-15.548v-183.54c0-5.18-1.064-10.248-3.186-15.208a164.444 164.444 0 00-4.248-6.422c-1.415-2.028-4.006-5.182-7.777-9.465zm243.202 78.688c17.806.12 33.712 7.751 43.414 28.59 8.74 18.772 16.48 38.009 24.69 57.03 1.207 2.789 2.516 5.53 4.406 9.678 6.156-8.075 12.315-14.974 17.136-22.707 12.887-20.668 33.064-53.531 37.75-62.574 2.39-4.84 5.877-8.272 8.078-8.484 2.204-.212 5.018-.288 7.399 1.199 2.38 1.489 4.21 5.08 2.543 12.12-1.667 7.037-2.625 9.6-4.934 15.023-13.517 29.579-33.347 55.054-54.193 79.697-3.933 4.65-4.106 8.054-1.902 13.314 9.407 22.466 18.225 45.177 27.566 67.672 3.106 7.477 6.943 14.675 10.777 21.822 3.876 7.227 6.645 11.048 18.414 10.889 4.85-.016 14.07-1.31 14.85 5.709.854 7.673-8.463 8.817-14.016 9.95-6.268 1.277-9.424 1.765-15.836 1.78-14.78.032-32.248-5.625-39.484-18.755-7.407-13.442-11.405-23.244-18.201-41.604-4.46-12.053-9.47-23.916-14.717-37.326-2.954 3.17-5.734 5.38-7.537 8.213-22.372 30.331-35.362 54.868-45.383 72.094-7.9 13.58-8.561 19.578-17.943 17.619-8.555-3.497-6.086-14.977-5.412-17.885 3.969-17.14 16.53-33.978 26.318-48.78 10.941-16.543 24.39-31.413 36.379-47.288 1.774-2.351 2.993-6.827 1.984-9.311-10.748-26.447-21.924-52.725-33.142-78.98-6.101-13.017-10.252-21.317-34.248-20.414-3.97-.361-6.376-1.406-6.31-5.989 0-5.558 3.751-7.532 6.501-8.347 8.473-2.515 16.96-4.01 25.053-3.956z"/></svg>
